site/static/images/icons/bulb.svg

<svg fill="none" height="32" viewBox="0 0 32 32" width="32" xmlns="http://www.w3.org/2000/svg" xmlns:xlink="http://www.w3.org/1999/xlink"><clipPath id="a"><path d="m0 0h32v32h-32z"/></clipPath><g clip-path="url(#a)" clip-rule="evenodd" fill="#ff659d" fill-rule="evenodd"><path d="m16 3c-7.1797 0-13 5.8203-13 13 0 7.1798 5.8203 13 13 13 7.1798 0 13-5.8202 13-13 0-7.1797-5.8202-13-13-13zm-16 13c0-8.83656 7.16344-16 16-16 8.8366 0 16 7.16344 16 16 0 8.8366-7.1634 16-16 16-8.83656 0-16-7.1634-16-16z"/><path d="m16.3529 8.6875c-2.7294 0-4.6203 1.9013-4.6203 4.2187 0 1.1071.4898 1.8282 1.1366 2.592l.2472.2847c.2576.297.5429.6255.7774.954.328.4623.6203 1.008.7173 1.6762.0231.2171-.041.4345-.179.6065-.1379.172-.3389.2852-.5608.3159-.2218.0308-.4473-.0234-.6289-.1512-.1817-.1277-.3055-.319-.3455-.5338-.0462-.3173-.1882-.6154-.4273-.9529-.1955-.265-.4044-.5203-.6261-.765-.097-.1125-.1998-.2306-.3096-.36-.7242-.8539-1.5339-1.9608-1.5339-3.6664 0-3.30745 2.7295-5.9062 6.3529-5.9062 3.6235 0 6.353 2.59875 6.353 5.9062 0 1.7056-.8097 2.8125-1.534 3.6664-.1097.1294-.2125.2475-.3095.3589-.2391.2756-.4424.5096-.6249.7661-.2403.3375-.3812.6356-.4274.9529-.0161.1097-.0542.2152-.1121.3106-.058.0953-.1347.1786-.2257.2451s-.1946.1149-.3048.1424-.2249.0336-.3375.018c-.1126-.0157-.221-.0528-.3189-.1093-.0979-.0564-.1834-.1311-.2517-.2197-.0682-.0887-.1179-.1895-.1462-.2969-.0282-.1073-.0345-.219-.0184-.3287.097-.6671.3893-1.2128.7173-1.6751.2345-.3285.5198-.657.7774-.954.0866-.099.1698-.1947.246-.2847.648-.7638 1.1378-1.4849 1.1378-2.592 0-2.3174-1.8909-4.2187-4.6204-4.2187zm-2.3101 15.4687c0-.2237.0913-.4383.2537-.5966.1625-.1582.3828-.2471.6126-.2471h2.8877c.2298 0 .4501.0889.6126.2471.1624.1583.2537.3729.2537.5966 0 .2238-.0913.4384-.2537.5967-.1625.1582-.3828.2471-.6126.2471h-2.8877c-.2298 0-.4501-.0889-.6126-.2471-.1624-.1583-.2537-.3729-.2537-.5967zm-.2888-3.6562c-.2297 0-.4501.0889-.6126.2471-.1624.1583-.2537.3729-.2537.5967 0 .2237.0913.4383.2537.5966.1625.1582.3829.2471.6126.2471h5.1979c.2297 0 .4501-.0889.6125-.2471.1625-.1583.2538-.3729.2538-.5966 0-.2238-.0913-.4384-.2538-.5967-.1624-.1582-.3828-.2471-.6125-.2471z"/></g></svg>

<svg width="32" height="32" viewBox="0 0 32 32" fill="none" xmlns="http://www.w3.org/2000/svg">
<g clip-path="url(#clip0_1205_603)">
<path fill-rule="evenodd" clip-rule="evenodd" d="M16 3C8.8203 3 3 8.8203 3 16C3 23.1798 8.8203 29 16 29C23.1798 29 29 23.1798 29 16C29 8.8203 23.1798 3 16 3ZM0 16C0 7.16344 7.16344 0 16 0C24.8366 0 32 7.16344 32 16C32 24.8366 24.8366 32 16 32C7.16344 32 0 24.8366 0 16Z" fill="#FF659D"/>
<path fill-rule="evenodd" clip-rule="evenodd" d="M16.3529 8.6875C13.6235 8.6875 11.7326 10.5888 11.7326 12.9062C11.7326 14.0133 12.2224 14.7344 12.8692 15.4982L13.1164 15.7829C13.374 16.0799 13.6593 16.4084 13.8938 16.7369C14.2218 17.1992 14.5141 17.7449 14.6111 18.4131C14.6342 18.6302 14.5701 18.8476 14.4321 19.0196C14.2942 19.1916 14.0932 19.3048 13.8713 19.3355C13.6495 19.3663 13.424 19.3121 13.2424 19.1843C13.0607 19.0566 12.9369 18.8653 12.8969 18.6505C12.8507 18.3332 12.7087 18.0351 12.4696 17.6976C12.2741 17.4326 12.0652 17.1773 11.8435 16.9326C11.7465 16.8201 11.6437 16.702 11.5339 16.5726C10.8097 15.7187 10 14.6118 10 12.9062C10 9.59875 12.7295 7 16.3529 7C19.9764 7 22.7059 9.59875 22.7059 12.9062C22.7059 14.6118 21.8962 15.7187 21.1719 16.5726C21.0622 16.702 20.9594 16.8201 20.8624 16.9315C20.6233 17.2071 20.42 17.4411 20.2375 17.6976C19.9972 18.0351 19.8563 18.3332 19.8101 18.6505C19.794 18.7602 19.7559 18.8657 19.698 18.9611C19.64 19.0564 19.5633 19.1397 19.4723 19.2062C19.3813 19.2727 19.2777 19.3211 19.1675 19.3486C19.0573 19.3761 18.9426 19.3822 18.83 19.3666C18.7174 19.3509 18.609 19.3138 18.5111 19.2573C18.4132 19.2009 18.3277 19.1262 18.2594 19.0376C18.1912 18.9489 18.1415 18.8481 18.1132 18.7407C18.085 18.6334 18.0787 18.5217 18.0948 18.412C18.1918 17.7449 18.4841 17.1992 18.8121 16.7369C19.0466 16.4084 19.3319 16.0799 19.5895 15.7829C19.6761 15.6839 19.7593 15.5882 19.8355 15.4982C20.4835 14.7344 20.9733 14.0133 20.9733 12.9062C20.9733 10.5888 19.0824 8.6875 16.3529 8.6875ZM14.0428 24.1562C14.0428 23.9325 14.1341 23.7179 14.2965 23.5596C14.459 23.4014 14.6793 23.3125 14.9091 23.3125H17.7968C18.0266 23.3125 18.2469 23.4014 18.4094 23.5596C18.5718 23.7179 18.6631 23.9325 18.6631 24.1562C18.6631 24.38 18.5718 24.5946 18.4094 24.7529C18.2469 24.9111 18.0266 25 17.7968 25H14.9091C14.6793 25 14.459 24.9111 14.2965 24.7529C14.1341 24.5946 14.0428 24.38 14.0428 24.1562ZM13.754 20.5C13.5243 20.5 13.3039 20.5889 13.1414 20.7471C12.979 20.9054 12.8877 21.12 12.8877 21.3438C12.8877 21.5675 12.979 21.7821 13.1414 21.9404C13.3039 22.0986 13.5243 22.1875 13.754 22.1875H18.9519C19.1816 22.1875 19.402 22.0986 19.5644 21.9404C19.7269 21.7821 19.8182 21.5675 19.8182 21.3438C19.8182 21.12 19.7269 20.9054 19.5644 20.7471C19.402 20.5889 19.1816 20.5 18.9519 20.5H13.754Z" fill="#FF659D"/>
</g>
<defs>
<clipPath id="clip0_1205_603">
<rect width="32" height="32" fill="white"/>
</clipPath>
</defs>
</svg>
